X:696
L:1/8
M:6/8
K:D
 D B | AFA AFA | BGB BdB | AFA Ade | fed BdB | AFA AFA | BAB BAB | def afe | fdB BdB :: def afa | 
 baf afe | def afe | fdB BAB | def afa | baf afd | g3 fef | edB B2 A :: d2 f fef | fef fef | 
 d2 f fef | edB BAB | d2 f fef | fef fef | g3 f3 | edB BAB :: Add fdd | ede fdB | Add fdd | 
 efe edB | Add fdd | ede fed | g3 f3 | edB B2 d :|

